dist/svg/u1F468_u1F3FE_u200D_u1F4BC.svg

<?xml version="1.0" encoding="UTF-8"?><svg id="Layer_1" xmlns="http://www.w3.org/2000/svg" viewBox="0 0 40 40"><g><path d="M28.03215,28.1334l-4.21358-1.60077c-2.45997-.93456-5.17725-.93456-7.63722,0l-4.21354,1.60076c-2.02818,.77052-3.7072,2.21749-4.77105,4.07083-.43647,.76037-.71285,1.60203-.92235,2.45337l-.53861,2.18883c-.08143,.33092,.16906,.65052,.50985,.65052h27.50867c.34079,0,.59128-.31961,.50985-.65053l-.53865-2.18889c-.2095-.85133-.48589-1.69297-.92235-2.45333-1.06385-1.85332-2.74286-3.30027-4.77103-4.07079Z" style="fill:#d1d1d1;"/><path d="M17.8244,23.4593h4.39236v2.38926c0,1.2121-.98407,2.19618-2.19618,2.19618h0c-1.2121,0-2.19618-.98407-2.19618-2.19618v-2.38926h0Z" style="fill:#956759;"/><path d="M23.12643,28.04471h-6.21174l2.52005,2.52005c.04423,.04423,.06206,.10841,.04697,.16911l-1.23859,6.76613h3.55489l-1.23859-6.76613c-.01509-.06071,.00274-.12488,.04697-.16911l2.52005-2.52005Z" style="fill:#5a81ff;"/><path d="M17.81531,25.93665l2.19618,2.10684-2.79005,2.78096c-.28212,.2812-.76409,.09862-.78908-.29893l-1.12224-3.66575,2.50519-.92312Z" style="fill:#f0f0f0;"/><path d="M22.20767,25.93651l-2.19618,2.10684,2.79005,2.78096c.28212,.2812,.76409,.09862,.78908-.29893l1.0881-3.66561-2.47106-.92326Z" style="fill:#f0f0f0;"/><g><circle cx="20.02058" cy="15.9229" r="9.15903" style="fill:#956759;"/><g><ellipse cx="11.66181" cy="16.18004" rx="3.66657" ry="3.43892" style="fill:#956759;"/><ellipse cx="28.37934" cy="16.18004" rx="3.66657" ry="3.43892" style="fill:#956759;"/></g><path d="M30.3781,13.29661c.09659-6.56771-5.80899-11.87655-12.58375-10.60806-4.23079,.79217-7.61713,4.21666-8.35975,8.45643-.13388,.76437-.18544,1.51721-.16207,2.25115,.00186,.05853,.04842,.11002,.10698,.11044,.23412,.00169,.83302,.12162,1.41733,1.18255,.08782,.15946,.30242,.19526,.42373,.05952l5.78965-6.47844s7.33449,5.89039,12.17513,5.56898c.10661-.00708,.22968-.04407,.35112-.09604,.32268-.18179,.59375-.51871,.84162-.44655Z" style="fill:#333;"/><g><ellipse cx="17.4474" cy="15.47982" rx=".97469" ry="1.16963"/><ellipse cx="22.59376" cy="15.47982" rx=".97469" ry="1.16963"/></g><path d="M21.23304,20.09144c.21905,0,.37466,.21044,.31655,.42164-.18464,.67108-.79926,1.16404-1.52901,1.16404s-1.34437-.49296-1.52901-1.16404c-.05811-.2112,.0975-.42164,.31655-.42164h2.42493Z" style="fill:#5c2f17;"/></g></g><rect width="40" height="40" style="fill:none;"/></svg>

<svg id="Layer_1" data-name="Layer 1" xmlns="http://www.w3.org/2000/svg" viewBox="0 0 40 40"><defs><style>.cls-1{fill:#d1d1d1;}.cls-2{fill:#956759;}.cls-3{fill:#5a81ff;}.cls-4{fill:#f0f0f0;}.cls-5{fill:#333;}.cls-6{fill:#5c2f17;}.cls-7{fill:none;}</style></defs><path class="cls-1" d="M28.032,28.133l-4.213-1.6a10.75,10.75,0,0,0-7.638,0l-4.213,1.6A9.322,9.322,0,0,0,7.2,32.2a9.417,9.417,0,0,0-.923,2.454l-.538,2.188a.525.525,0,0,0,.51.651H33.754a.525.525,0,0,0,.51-.651l-.538-2.188A9.417,9.417,0,0,0,32.8,32.2,9.322,9.322,0,0,0,28.032,28.133Z"/><path class="cls-2" d="M17.824,23.459h4.392a0,0,0,0,1,0,0v2.389a2.2,2.2,0,0,1-2.2,2.2h0a2.2,2.2,0,0,1-2.2-2.2V23.459A0,0,0,0,1,17.824,23.459Z"/><path class="cls-3" d="M23.126,28.045H16.915l2.52,2.52a.179.179,0,0,1,.047.169L18.243,37.5H21.8l-1.239-6.766a.179.179,0,0,1,.047-.169Z"/><path class="cls-4" d="M17.815,25.937l2.2,2.106-2.79,2.781a.463.463,0,0,1-.789-.3L15.31,26.86Z"/><path class="cls-4" d="M22.208,25.937l-2.2,2.106L22.8,30.824a.463.463,0,0,0,.789-.3l1.088-3.665Z"/><circle class="cls-2" cx="20.021" cy="15.923" r="9.159"/><ellipse class="cls-2" cx="11.662" cy="16.18" rx="3.667" ry="3.439"/><ellipse class="cls-2" cx="28.379" cy="16.18" rx="3.667" ry="3.439"/><path class="cls-5" d="M30.378,13.3A10.56,10.56,0,0,0,9.435,11.145,10.949,10.949,0,0,0,9.273,13.4a.112.112,0,0,0,.107.111c.234,0,.833.121,1.417,1.182a.262.262,0,0,0,.424.06L17.01,8.27s7.335,5.891,12.175,5.569a1.116,1.116,0,0,0,.351-.1C29.859,13.561,30.13,13.224,30.378,13.3Z"/><ellipse cx="17.447" cy="15.48" rx="0.975" ry="1.17"/><ellipse cx="22.594" cy="15.48" rx="0.975" ry="1.17"/><path class="cls-6" d="M21.233,20.091a.332.332,0,0,1,.317.422,1.586,1.586,0,0,1-3.058,0,.331.331,0,0,1,.316-.422Z"/><rect class="cls-7" width="40" height="40"/></svg>
